modules/hawcons-stroke/icons/icon-47-diving-goggles.svg

<?xml version="1.0" encoding="UTF-8" standalone="no"?>
<svg width="32px" height="32px" viewBox="0 0 32 32" version="1.1" xmlns="http://www.w3.org/2000/svg" xmlns:xlink="http://www.w3.org/1999/xlink" xmlns:sketch="http://www.bohemiancoding.com/sketch/ns">
    <!-- Generator: Sketch 3.0.3 (7891) - http://www.bohemiancoding.com/sketch -->
    <title>icon 47 diving goggles</title>
    <desc>Created with Sketch.</desc>
    <defs></defs>
    <g id="Page-1" stroke="none" stroke-width="1" fill="none" fill-rule="evenodd" sketch:type="MSPage">
        <g id="icon-47-diving-goggles" sketch:type="MSArtboardGroup" fill="#929292">
            <path d="M16,21 L18,21 L18,18 L11,18 L11,21 L13,21 C13,24.8659932 13,21 13,21 C13,25.418278 16.5907123,29 21,29 C25.418278,29 29,25.4181095 29,21.003902 L29,4 L26,4 L26,21.0078595 C26,23.7649426 23.7558048,26 21,26 C18.2385763,26 16,23.7541838 16,21 C16,21 16,22.9747925 16,21 L16,21 Z M27,21.0064359 C27,24.31659 24.3069658,27 21,27 C17.6862915,27 15,24.3136368 15,21.0029293 L15,20 L17,20 L17,19 L12,19 L12,20 L14,20 L14,20.9970301 C14,24.8646636 17.1307386,28 21,28 C21,28 18.1211461,28 21,28 C24.8659932,28 28,24.8646393 28,21.0020796 L28,10 L27,10 L27,21.0064359 L27,21.0064359 Z M27,9 L27,5 L28,5 L28,9 L27,9 L27,9 Z M4,11.5 L4,11.9989013 C4,14.7609319 6.23408975,17 8.99408095,17 L9.99707067,17 C10.5509732,17 11.2517114,16.6404123 11.5779538,16.1743517 L13.3539691,13.637187 C13.9869045,12.7329936 15.0145278,12.7377672 15.641794,13.637187 L17.4112434,16.1743517 C17.7292584,16.6303447 18.4257513,17 18.9918438,17 L19.9966875,17 C22.7599407,17 25,14.7607271 25,11.9989013 L25,11.5 C25,8.46243388 22.5292806,6 19.5099272,6 L9.49007281,6 C6.45798932,6 4,8.46861471 4,11.5 L4,11.5 Z M19.5099272,7 C21.9813463,7 24,9.01906999 24,11.5 L24,11.9989013 C24,14.2084203 22.2076779,16 19.9966875,16 L18.9918438,16 C18.7574679,16 18.3652264,15.7941026 18.2314713,15.6023148 L16.4620219,13.0651501 C15.4362398,11.5943094 13.5652136,11.5916155 12.5347372,13.0637247 L10.7587219,15.6008893 C10.622242,15.7958606 10.2292664,16 9.99707067,16 L8.99408095,16 C6.78738031,16 5,14.2096533 5,11.9989013 L5,11.5 C5,9.01818749 7.01298219,7 9.49007281,7 L19.5099272,7 L19.5099272,7 Z" id="diving-goggles" sketch:type="MSShapeGroup"></path>
        </g>
    </g>
</svg>

<svg width="32" height="32" xmlns="http://www.w3.org/2000/svg"><path d="M16 21h2v-3h-7v3h2c0 3.866 0 0 0 0a8 8 0 1 0 16 .004V4h-3v17.008A5 5 0 0 1 16 21s0 1.975 0 0zm11 .006C27 24.316 24.307 27 21 27a6 6 0 0 1-6-5.997V20h2v-1h-5v1h2v.997A7 7 0 0 0 21 28s-2.879 0 0 0a7 7 0 0 0 7-6.998V10h-1v11.006zM27 9V5h1v4h-1zM4 11.5v.499A4.996 4.996 0 0 0 8.994 17h1.003c.554 0 1.255-.36 1.581-.826l1.776-2.537c.633-.904 1.66-.9 2.288 0l1.77 2.537c.317.456 1.014.826 1.58.826h1.005A5.002 5.002 0 0 0 25 11.999V11.5C25 8.462 22.53 6 19.51 6H9.49C6.458 6 4 8.469 4 11.5zM19.51 7C21.98 7 24 9.02 24 11.5v.499A4.002 4.002 0 0 1 19.997 16h-1.005c-.235 0-.627-.206-.76-.398l-1.77-2.537c-1.026-1.47-2.897-1.473-3.927-.001L10.759 15.6c-.137.195-.53.399-.762.399H8.994A3.996 3.996 0 0 1 5 11.999V11.5C5 9.018 7.013 7 9.49 7h10.02z" fill="#929292" fill-rule="evenodd"/></svg>
